X:0195
T:Lassie wi the Yellow Coatie.
M:C
L:1/8
Q:1/2=104
I: :: ::
Z:Jack Campin * www.campin.me.uk * 2009
K:G
G2GB degd|e/e/e gd e>de>g|G/G/G GB degd|e/f/g dB AG E2:|
gabg aegd|Bdde    =f>gaf |gabg     aegd|e/f/g dB AG E2:|
<end>
<start>
